status/48/microphone-sensitivity-low-symbolic.svg

<?xml version="1.0" encoding="UTF-8" standalone="no"?>
<svg
   xmlns:dc="http://purl.org/dc/elements/1.1/"
   xmlns:cc="http://creativecommons.org/ns#"
   xmlns:rdf="http://www.w3.org/1999/02/22-rdf-syntax-ns#"
   xmlns:svg="http://www.w3.org/2000/svg"
   xmlns="http://www.w3.org/2000/svg"
   id="svg2"
   height="48"
   width="48"
   version="1.1">
  <defs
     id="defs4" />
  <metadata
     id="metadata7">
    <rdf:RDF>
      <cc:Work
         rdf:about="">
        <dc:format>image/svg+xml</dc:format>
        <dc:type
           rdf:resource="http://purl.org/dc/dcmitype/StillImage" />
        <dc:title />
      </cc:Work>
    </rdf:RDF>
  </metadata>
  <circle
     style="opacity:1;fill:#bebebe;fill-opacity:1;stroke:none;stroke-width:3;stroke-linecap:butt;stroke-linejoin:round;stroke-miterlimit:4;stroke-dasharray:none;stroke-opacity:1"
     id="circle4151"
     cx="35.5"
     cy="32.5"
     r="3.5" />
  <path
     id="path3122-2-8-1"
     d="m 19,8.0499637 c -2.76999,0 -5,2.1973043 -5,4.9277343 l 0,13.144532 c 0,2.73042 2.23001,4.927734 5,4.927734 2.77,0 5,-2.197314 5,-4.927734 L 24,12.977698 C 24,10.247268 21.77,8.0499637 19,8.0499637 Z M 8,19.049964 l 0,2 2,0 0,5 c 0,4.29466 2.98788,7.84159 7,8.75 l 0,3.25 -2,0 0,2 8,0 0,-2 -2,0 0,-3.25 c 4.01212,-0.90841 7,-4.45534 7,-8.75 l 0,-5 2,0 0,-2 -2,0 -2,0 0,2 0,5 c 0,3.878 -3.122,7 -7,7 -3.878,0 -7,-3.122 -7,-7 l 0,-7 -4,0 z"
     style="color:#bebebe;clip-rule:nonzero;display:inline;overflow:visible;visibility:visible;opacity:1;isolation:auto;mix-blend-mode:normal;color-interpolation:sRGB;color-interpolation-filters:linearRGB;solid-color:#000000;solid-opacity:1;fill:#bebebe;fill-opacity:1;fill-rule:nonzero;stroke:none;stroke-width:1;stroke-linecap:butt;stroke-linejoin:miter;stroke-miterlimit:4;stroke-dasharray:none;stroke-dashoffset:0;stroke-opacity:1;marker:none;color-rendering:auto;image-rendering:auto;shape-rendering:auto;text-rendering:auto;enable-background:accumulate" />
  <path
     id="path4330"
     d="M 35.5,20 A 3.5,3.5 0 0 0 32,23.5 3.5,3.5 0 0 0 35.5,27 3.5,3.5 0 0 0 39,23.5 3.5,3.5 0 0 0 35.5,20 Z m 0,1 A 2.5,2.5 0 0 1 38,23.5 2.5,2.5 0 0 1 35.5,26 2.5,2.5 0 0 1 33,23.5 2.5,2.5 0 0 1 35.5,21 Z"
     style="opacity:1;fill:#bebebe;fill-opacity:1;stroke:none;stroke-width:3;stroke-linecap:butt;stroke-linejoin:round;stroke-miterlimit:4;stroke-dasharray:none;stroke-opacity:1" />
  <path
     style="opacity:1;fill:#bebebe;fill-opacity:1;stroke:none;stroke-width:3;stroke-linecap:butt;stroke-linejoin:round;stroke-miterlimit:4;stroke-dasharray:none;stroke-opacity:1"
     d="M 35.5,11 A 3.5,3.5 0 0 0 32,14.5 3.5,3.5 0 0 0 35.5,18 3.5,3.5 0 0 0 39,14.5 3.5,3.5 0 0 0 35.5,11 Z m 0,1 A 2.5,2.5 0 0 1 38,14.5 2.5,2.5 0 0 1 35.5,17 2.5,2.5 0 0 1 33,14.5 2.5,2.5 0 0 1 35.5,12 Z"
     id="path4154" />
</svg>

<?xml version="1.0" encoding="UTF-8" standalone="no"?>
<svg
   xmlns:dc="http://purl.org/dc/elements/1.1/"
   xmlns:cc="http://creativecommons.org/ns#"
   xmlns:rdf="http://www.w3.org/1999/02/22-rdf-syntax-ns#"
   xmlns:svg="http://www.w3.org/2000/svg"
   xmlns="http://www.w3.org/2000/svg"
   version="1.1"
   id="svg2"
   height="48"
   width="48">
  <metadata
     id="metadata24">
    <rdf:RDF>
      <cc:Work
         rdf:about="">
        <dc:format>image/svg+xml</dc:format>
        <dc:type
           rdf:resource="http://purl.org/dc/dcmitype/StillImage" />
      </cc:Work>
    </rdf:RDF>
  </metadata>
  <defs
     id="defs4" />
  <circle
     id="circle16"
     fill="#bebebe"
     cx="35.5"
     cy="32.5"
     r="3.5" />
  <path
     id="path18"
     fill="#bebebe"
     overflow="visible"
     color="#bebebe"
     d="M19 8.05c-2.77 0-5 2.197-5 4.928v13.144c0 2.73 2.23 4.928 5 4.928s5-2.197 5-4.928V12.978c0-2.73-2.23-4.928-5-4.928zm-11 11v2h2v5c0 4.295 2.988 7.842 7 8.75v3.25h-2v2h8v-2h-2V34.8c4.012-.908 7-4.455 7-8.75v-5h2v-2h-4v7c0 3.878-3.122 7-7 7s-7-3.122-7-7v-7H8z"
     style="isolation:auto;mix-blend-mode:normal;marker:none" />
  <path
     id="path20"
     fill="#bebebe"
     d="M35.5 20a3.5 3.5 0 0 0-3.5 3.5 3.5 3.5 0 0 0 3.5 3.5 3.5 3.5 0 0 0 3.5-3.5 3.5 3.5 0 0 0-3.5-3.5zm0 1a2.5 2.5 0 0 1 2.5 2.5 2.5 2.5 0 0 1-2.5 2.5 2.5 2.5 0 0 1-2.5-2.5 2.5 2.5 0 0 1 2.5-2.5zM35.5 11a3.5 3.5 0 0 0-3.5 3.5 3.5 3.5 0 0 0 3.5 3.5 3.5 3.5 0 0 0 3.5-3.5 3.5 3.5 0 0 0-3.5-3.5zm0 1a2.5 2.5 0 0 1 2.5 2.5 2.5 2.5 0 0 1-2.5 2.5 2.5 2.5 0 0 1-2.5-2.5 2.5 2.5 0 0 1 2.5-2.5z" />
</svg>
